dist/assets/img/geo.svg

<svg width="15" height="20" viewBox="0 0 15 20" fill="none" xmlns="http://www.w3.org/2000/svg">
<path d="M7.35714 0C3.29414 0.00428909 0.00208257 3.39608 0 7.57998C0 11.6507 6.78538 19.5387 7.07315 19.8702C7.21263 20.0306 7.45203 20.0442 7.60785 19.9006C7.61821 19.891 7.62806 19.8809 7.63738 19.8702C7.92515 19.5348 14.7105 11.6507 14.7105 7.57998C14.7084 3.39759 11.4186 0.00643363 7.35714 0ZM7.35714 19.0162C6.06216 17.4566 0.757297 10.9099 0.757297 7.57609C0.757297 3.8226 3.71213 0.779834 7.35714 0.779834C11.0021 0.779834 13.957 3.8226 13.957 7.57609C13.957 10.9099 8.65211 17.4644 7.35714 19.0162Z" fill="#161616"/>
<path d="M7.21336 3.80127C5.01133 3.80341 3.2279 5.64355 3.22998 7.91126C3.23206 10.179 5.01891 12.0156 7.22094 12.0134C9.4215 12.0113 11.2043 10.1736 11.2043 7.90736C11.2002 5.6399 9.41516 3.80341 7.21336 3.80127ZM7.21336 11.2375C5.42955 11.2375 3.98349 9.74828 3.98349 7.91126C3.98349 6.07424 5.42955 4.58505 7.21336 4.58505C8.99718 4.58505 10.4432 6.07424 10.4432 7.91126C10.4412 9.7474 8.99628 11.2353 7.21336 11.2375Z" fill="#161616"/>
</svg>

<svg width="15" height="20" fill="none" xmlns="http://www.w3.org/2000/svg"><path d="M7.357 0C3.294.004.002 3.396 0 7.58c0 4.07 6.785 11.959 7.073 12.29a.371.371 0 00.564 0c.288-.335 7.074-8.22 7.074-12.29C14.707 3.398 11.418.006 7.356 0zm0 19.016c-1.295-1.56-6.6-8.106-6.6-11.44C.757 3.823 3.712.78 7.357.78c3.645 0 6.6 3.043 6.6 6.796 0 3.334-5.305 9.888-6.6 11.44z" fill="#161616"/><path d="M7.213 3.801c-2.202.002-3.985 1.843-3.983 4.11.002 2.268 1.789 4.105 3.99 4.102 2.202-.002 3.984-1.84 3.984-4.106-.004-2.267-1.789-4.104-3.99-4.106zm0 7.437c-1.783 0-3.23-1.49-3.23-3.327s1.447-3.326 3.23-3.326c1.784 0 3.23 1.49 3.23 3.326-.002 1.836-1.447 3.324-3.23 3.327z" fill="#161616"/></svg>
